X:1
T:Title
%%score { ( 1 3 ) | ( 2 4 ) }
L:1/8
Q:1/4=100
M:4/4
K:Ab
V:1 treble nm="Grand Piano"
V:3 treble 
V:2 bass 
V:4 bass 
V:1
 [Ec]2 [Ec]>[Ec] [Ec]2 [DB][CA] | [CE]4 [CA]3 [CA] | B2 BB B2 AB |[M:3/4] c6 |[M:1/4] [=EB]2 | %5
w: C.~E.~Hunter * * * * *|||||
[M:4/4] [FA]2 [FA][FA] [FA]2 [EG][DF] | [CE]4 [CA]3 B | c2 cA B B2 G | [CA]6 z2 | B2 BB B2 EB | %10
w: |||||
 [CA]4 [Ec]3 [CEA] | [EG]2 [EG][EG] [=DF]2 [DF]D |[M:3/4] E6 |[M:1/4] E2 | %14
w: ||||
[M:4/4] [CE]2 [CE][CE] [CA]2 [DB][Ec] |[M:9/8] [_Ge]3- [Ge] [Fd]2- [Fd] F2 |[M:4/4] E2 AA c2 BB | %17
w: |||
 [CA]6 z2 |] %18
w: |
V:2
 [A,,A,]2 [A,,A,]>[A,,A,] [A,,A,]2 [A,,E,][A,,E,] | [A,,A,]4 [A,,A,]3 [A,,A,] | %2
 [E,G,D]2 [E,G,D][E,G,D] [E,G,D]2 [F,A,C][E,G,D] |[M:3/4] [A,E]6 |[M:1/4] [C,A,]2 | %5
[M:4/4] [D,F,]2 [D,D][D,D] [D,D]2 [D,A,][D,A,] | [A,,A,]4 [A,,A,]3 [E,G,E] | %7
 [A,E]2 [A,E][A,CE] [E,G,D] [E,G,D]2 [E,B,D] | [A,,A,]6 z2 | %9
 [E,G,D]2 [E,G,D][E,G,D] [E,G,D]2 [E,G,D][E,G,D] | [A,,A,]4 [A,,A,]3 A,, | %11
 [B,,B,]2 [B,,B,][B,,B,] [B,,B,]2 [B,,B,][B,,A,B,] |[M:3/4] [G,B,]4 B,2 |[M:1/4] [E,G,D]2 | %14
[M:4/4] [A,,A,]2 [A,,A,][A,,A,] [A,,A,]2 [A,,A,][A,,A,] | %15
[M:9/8] [C,A,]3- [C,A,] [D,A,]2- [D,A,] [D,A,D]2 | %16
[M:4/4] [E,A,C]2 [E,CE][E,CE] [E,A,E]2 [E,G,D][E,G,D] | [A,,A,]6 z2 |] %18
V:3
 x8 | x8 | x8 |[M:3/4] x6 |[M:1/4] x2 |[M:4/4] x8 | x8 | x8 | x8 | x8 | x8 | x8 |[M:3/4] z2 z2 D2 | %13
[M:1/4] x2 |[M:4/4] x8 |[M:9/8] x9 |[M:4/4] x8 | x8 |] %18
V:4
 x8 | x8 | x8 |[M:3/4] x6 |[M:1/4] x2 |[M:4/4] x8 | x8 | x8 | x8 | x8 | x8 | x8 |[M:3/4] E,6 | %13
[M:1/4] x2 |[M:4/4] x8 |[M:9/8] x9 |[M:4/4] x8 | x8 |] %18

